X:74
%%pagewidth 9in
%%vocalfont Baskerville10Pro 14
%%score 1 2
T:Cock Lorrel or Cook Lawrel
M:6/8
L:1/8
K:Bb
V:1 clef-treble
V:2 clef-bass octave=-1
V:1
A|AAAA2A|A^FDF2D|DGGG2^F|G2A B>AG|
w:Let's cast a-way care, and mer-*rily sing, For there is a time for ev'ry thing, He* that
V:2
z|[CEA]6|[D^F]3[CDA]3|[B,DG]3[DA]3|[GB]3[G,G]3|
V:1
AAAA2A|[DA]^FD (F>=E)D|BAB cdB&D3^F3|[^FA]2GG2||
w:plays at his work, And works at his play,* Doth neither* keep work-ing nor ho li-day.
V:2
c6|[^Fc]3[Ac]3|[GB]3A2d&x3D3|c2BB2&G3-G2||

